X: 1
T: Chailleach an Dudain
R: jig
Z: John Chambers <jc:trillian.mit.edu>
N: From handwritten MS.
M: 6/8
L: 1/8
K: AMix
|: "A"AAA a3 | "D"f2a "A"e3 | "A"AAA a3 | "G"B2e dBG \
|  "A"AAA a3 | "D"f2a "A"e3 | "Bm"ddd "A"ccc | "G"B2e dBG :|
|: "A"AAA c2e | AAA c2e | AAA c2e | "G"B2e dBG \
|  "A"AAA c2e | A2e a3 | "Bm"ddd "A"ccc | "G"B2e dBG :|
